packages/icons/src/components/Icon/assets/default-outline/cursor.svg

<svg width="20" height="20" viewBox="0 0 20 20" fill="none" xmlns="http://www.w3.org/2000/svg">
<path d="M2.46965 2.46965C2.69782 2.24148 3.04622 2.1849 3.33488 2.32902L17.8349 9.57902C18.1061 9.71462 18.2693 10.0002 18.248 10.3027C18.2265 10.6052 18.025 10.8659 17.7372 10.9618L12.6542 12.6552L10.9618 17.7372C10.8659 18.025 10.6052 18.2265 10.3027 18.248C10.0002 18.2693 9.71462 18.1061 9.57902 17.8349L2.32902 3.33488C2.1849 3.04622 2.24148 2.69782 2.46965 2.46965ZM10.1103 15.5439L11.3505 11.8251C11.4252 11.6013 11.6013 11.4261 11.8251 11.3515L15.5448 10.1103L4.67668 4.67668L10.1103 15.5439Z" />
</svg>

<svg xmlns="http://www.w3.org/2000/svg" width="20" height="20" fill="none" viewBox="0 0 20 20">
    <path d="M2.47 2.47a.75.75 0 0 1 .865-.141l14.5 7.25a.75.75 0 0 1-.098 1.383l-5.083 1.693-1.692 5.082a.75.75 0 0 1-1.383.098l-7.25-14.5a.75.75 0 0 1 .14-.865m7.64 13.074 1.24-3.719a.75.75 0 0 1 .475-.473l3.72-1.242L4.677 4.677z"/>
</svg>
